symbols-de/shields/motorway_8x1.svg

<?xml version="1.0" encoding="UTF-8" standalone="no"?>
<svg
   xmlns:dc="http://purl.org/dc/elements/1.1/"
   xmlns:cc="http://creativecommons.org/ns#"
   xmlns:rdf="http://www.w3.org/1999/02/22-rdf-syntax-ns#"
   xmlns:svg="http://www.w3.org/2000/svg"
   xmlns="http://www.w3.org/2000/svg"
   version="1.1"
   id="svg2"
   viewBox="0 0 57.0 15.0"
   height="100%"
   width="100%">
  <metadata
     id="metadata9">
    <rdf:RDF>
      <cc:Work
         rdf:about="">
        <dc:format>image/svg+xml</dc:format>
        <dc:type
           rdf:resource="http://purl.org/dc/dcmitype/StillImage" />
        <dc:title></dc:title>
      </cc:Work>
    </rdf:RDF>
  </metadata>
  <defs
     id="defs7" />
  <path
     style="fill:#365eaf;fill-opacity:1;stroke:#0528a2;stroke-width:1;stroke-miterlimit:4;stroke-dasharray:none;stroke-opacity:1"
     id="path6"
     d="m 0.50005089,7.500041 0,-4.836335 q 0,-0.2545456 0.90322221,-0.3818149 L 27.897843,0.51281283 q 0,-0.0127608 0.602154,-0.0127608 0.602147,0 0.602147,0.0127608 L 55.596721,2.2818911 q 0.903228,0.1272693 0.903228,0.3818149 l 0,9.672672 q 0,0.254547 -0.903228,0.381815 l -26.494577,1.769075 q 0,0.01268 -0.602147,0.01268 -0.602154,0 -0.602154,-0.01268 L 1.4032731,12.718193 Q 0.50005089,12.590925 0.50005089,12.336378 Z" />
</svg>

<?xml version="1.0" encoding="UTF-8"?>
<svg xmlns="http://www.w3.org/2000/svg" xmlns:xlink="http://www.w3.org/1999/xlink" width="59pt" height="18pt" viewBox="0 0 59 18" version="1.1">
<g id="surface1">
<path style="fill-rule:nonzero;fill:rgb(21.176471%,36.862745%,68.627451%);fill-opacity:1;stroke-width:1;stroke-linecap:butt;stroke-linejoin:miter;stroke:rgb(1.960784%,15.686275%,63.529412%);stroke-opacity:1;stroke-miterlimit:4;" d="M 0.50192 7.5 L 0.50192 2.66276 C 0.50192 2.49349 0.800053 2.366536 1.403867 2.281901 L 27.896186 0.514323 C 27.896186 0.504557 28.099974 0.501302 28.5 0.501302 C 28.900026 0.501302 29.103814 0.504557 29.103814 0.514323 L 55.596133 2.281901 C 56.199947 2.366536 56.49808 2.49349 56.49808 2.66276 L 56.49808 12.33724 C 56.49808 12.50651 56.199947 12.633464 55.596133 12.718099 L 29.103814 14.485677 C 29.103814 14.495443 28.900026 14.498698 28.5 14.498698 C 28.099974 14.498698 27.896186 14.495443 27.896186 14.485677 L 1.403867 12.718099 C 0.800053 12.633464 0.50192 12.50651 0.50192 12.33724 Z M 0.50192 7.5 " transform="matrix(1.035088,0,0,1.2,0,0)"/>
</g>
</svg>
